!!!COM: Bach, Johann Sebastian
!!!CDT: 1685/3//-1750/7/28/
!!!OTL@@DE: O Welt, sieh hier dein Leben
!!!AGN: 4-Part Chorale
!!!SCT: BH 366
!!!SCT: BWV 394
**harm	**root	**kern	**kern	**kern	**kern
!	!	!bass	!tenor	!alto	!soprno
*	*Iorgan	*Iorgan	*Iorgan	*Iorgan	*Iorgan
*M4/4	*M4/4	*M4/4	*M4/4	*M4/4	*M4/4
*met(c)	*met(c)	*met(c)	*met(c)	*met(c)	*met(c)
*MM60	*MM60	*MM60	*MM60	*MM60	*MM60
*k[]	*k[]	*k[]	*k[]	*k[]	*k[]
*D#:	*D#:	*D#:	*D#:	*D#:	*D#:
I	4AA	4d#	4a#	8dd#	8ff##
.	.	.	.	8cc##	8ee#
=1	=1	=1	=1	=1	=1
IV	4DD	8g#	8b#	4.b#	4dd#
.	.	8f##	8a#	.	.
ii	4BB	4e#	4g#	.	4ee#
.	.	.	.	8cc##	.
I	4AA	4d#	4a#	4.dd#	8ff##
.	.	.	.	.	8gg#
Ib	4AA	4F##	4d#	.	4aa#
.	.	.	.	8a#	.
=2	=2	=2	=2	=2	=2
ii7	4BB	4E#	4d#	4b#	2gg#
V7	4EE	4A#	4c##	4a#	.
I;	4AA;	4D#;	4d#;	4a#;	4ff##;
I	4AA	8d#	4a#	4dd#	8ff##
.	.	8e#	.	.	8gg#
=3	=3	=3	=3	=3	=3
Ib	4AA	4f##	4a#	8dd#	4aa#
.	.	.	.	8cc##	.
Ib	4AA	8F##	4a#	8dd#	4aa#
.	.	8G#	.	8ee#	.
V	4EE	4A#	8a#	8cc##	4ee#
.	.	.	8g#	8b#	.
I	4AA	8d#	4f##	4a#	8ff##
.	.	8c##	.	.	8ee#
=4	=4	=4	=4	=4	=4
vi7	4FF#	4B#	4f##	4a#	2dd#
V7/V	4BB	4E#	4e#	4g##	.
V;	4EE;	4A#;	4e#;	4a#;	4cc##;
V	4EE	8A#	4c##	4e#	4a#
.	.	8G#	.	.	.
=5	=5	=5	=5	=5	=5
Ib	8AA	8F##	4d#	8a#	4dd#
IV	8DD	8G#	.	8b#	.
viioc	4GG#	8F##	4g#	4cc##	4ee#
.	.	8E#	.	.	.
I	8AA	4D#	8a#	8dd#	8ff##
viioc	8GG#	.	8g#	8cc##	8ee#
I	8AA	8d#	8a#	8dd#	8ff##
iib	8BB	8G#	8b#	8ee#	8gg#
=6	=6	=6	=6	=6	=6
V;	2EE;	2A#;	2a#;	2cc##;	2ee#;
r	4r	4r	4r	4r	4r
V/vi	4CC#	4F##	4a##	4cc##	8ff##
.	.	.	.	.	8ee#
!!linebreak: 2
=7	=7	=7	=7	=7	=7
vi	4FF#	4B#	8f##	4b#	4dd#
.	.	.	8g#	.	.
Vb	4EE	4c##	8f##	4a#	4ee#
.	.	.	8e#	.	.
I	4AA	8d#	4d#	8a#	8ff##
.	.	8e#	.	8g#	8gg#
I	4AA	8d#	4d#	4f##	4aa#
.	.	8c##	.	.	.
=8	=8	=8	=8	=8	=8
IVb	4DD	4B#	8d#	8f##	2gg#
.	.	.	4b#	16e#	.
.	.	.	.	16d#	.
V7b	4EE	4c##	.	4e#	.
.	.	.	8a#	.	.
I;	4AA;	4d#;	4a#;	4d#;	4ff##;
vi	4FF#	4B#	4b#	4dd#	8ff##
.	.	.	.	.	8gg#
=9	=9	=9	=9	=9	=9
Vb	8EE	8c##	4a#	8ee#	4aa#
I	8AA	8d#	.	8ff##	.
Vb	4EE	8c##	4e#	8ee#	4aa#
.	.	8B#	.	8dd#	.
V	4EE	8A#	8e#	8cc##	4ee#
.	.	8B#	8d#	8b#	.
iiib	8CC#	8A#	8c##	4cc##	8ff##
v7c/iii	8GG#	8G##	8B#	.	8ee#
=10	=10	=10	=10	=10	=10
iii7b	8CC#	4F##	8A#	8cc##	2dd#
vic	8FF#	.	4f##	16b#	.
.	.	.	.	16a#	.
viio7/V	4DD#	4G##	.	4b#	.
.	.	.	8e#	.	.
V;	4EE;	4A#;	4e#;	4a#;	4cc##;
iii	4CC#	4F##	8f##	8a#	4a#
.	.	.	8e#	8g#	.
=11	=11	=11	=11	=11	=11
vi	4FF#	4B#	4d#	8f##	4dd#
.	.	.	.	8g#	.
iii7b	8CC#	8A#	8c##	8f##	4ee#
iib	8BB	8G#	8B#	8e#	.
Ib	4AA	8F##	4.A#	4d#	8ff##
.	.	8E#	.	.	8gg#
Ib	8AA	8F##	.	4dd#	8aa#
IV	8DD	8G#	8B#	.	8gg#
=12	=12	=12	=12	=12	=12
iiib	8CC#	8A#	8c##	8a#	4ff##
IV7	8DD	8G#	4d#	8b#	.
V	4EE	4A#	.	8e#	4ee#
.	.	.	8c##	8a#	.
I;	4AA;	4D#;	4A#;	4f##;	4dd#;
==	==	==	==	==	==
*-	*-	*-	*-	*-	*-
!!chor2scor: -l 2 -o %b.pmx
!!!YEC: Copyright 1994, David Huron
!!!YEC: Changes/Additions 2001 by Craig Stuart Sapp
!!!YEN: United States of America
!!!SMA: 371 Bach Chorales, edited by Ludwig Erk, C.F. Peters
!!!PDT: 1850, 1865
!!!ONB: Harmony and Root analysis done manually
